X: 103
T: No_198_Dream_Song.krn
N: Derived from No_198_Dream_Song.krn
%%abc-version 2.0
%%abcx-abcm2ps-target-version 5.9.1 (29 Sep 2008)
%%abc-creator hum2abc beta
%%abcx-conversion-date 2019/03/15 08:29:13
%%humdrum-veritas 4152204333
%%humdrum-veritas-data 646022647
%%linebreak <none>
%%barnumbers 0
L: 1/8
M: 2/4
K: F clef=bass
C3/C/ [I:setbarnb 1]| 
C2C2 | 
A,2A,3/A,/ | 
C2(3CA,G, | 
F,3/F,/F,2- | 
!fermata!F,2A,3/A,/ | 
C2(3CA,G, | 
F,3/F,/ F,3/A,/ | 
F,2F,3/D,/ | 
F,2F,3/A,/ | 
F,2F,3/D,/ | 
C,2C,3/F,/ | 
C,2C,3/A,,/ | 
C,2C,3/C,/ | 
C,2C,/A,,3/ | 
F,,3/F,,/F,,2 | 
F,,4 | 
z2A,3/A,/ | 
C2(3(C/A,)C | 
F,2F,3/B,/ | 
F,2(3(F,/D,)D, | 
F,2(3(A,/F,)A, | 
F,2(3(F,/D,)D, | 
C,2C,3/F,/ | 
C,2C,3/A,,/ | 
C,2C,3/C,/ | 
C,2(C,/A,,3/) | 
F,,3/F,,/F,,2- | 
F,,2-F,,2 | 
F,,2C3/C/ | 
C2C2 | 
A,2A,3/A,/ | 
C2(3CA,G, | 
F,3/F,/F,2- | 
!fermata!F,2A,3/A,/ | 
C2(3CA,G, | 
F,3/F,/ F,3/A,/ | 
F,2F,3/D,/ | 
F,2F,3/A,/ | 
F,2F,3/D,/ | 
C,2C,3/F,/ | 
C,2C,3/A,,/ | 
C,2C,3/C,/ | 
C,2C,/A,,3/ | 
F,,3/F,,/F,,2- | 
F,,4 |]  



